!!! OTL: Berkowitz286
!!! Chapter: 1
!!! Section: II
!!! Page: 68
!!! Mode: 
!!! Encoder: DJB
**kern
*staff1
*I"Piano
=1-
*clefG2
*k[]
*a:
*M2/4
8a/L
8g/J
4e/
=2
8a/L
8g/J
4e/
=3
8d/L
8a/J
8cc\L
16b\L
16a\JJ
=4
8b/L
8g/J
4a/
=5
8a/L
8g/J
4e/
=6
16a/LL
16b/
16a/
16g/JJ
8e/L
16f/L
16e/JJ
=7
8d/L
8a/J
8cc\L
16b\L
16a\JJ
=8
8b/L
8g/J
4a/
==
*-
